Sources/FrostedUI/Resources/Icons.xcassets/linkedin24.imageset/linkedin-24.svg

<svg width="24" height="24" viewBox="0 0 24 24" fill="none" xmlns="http://www.w3.org/2000/svg" data-fui-icon="true">
  <path
    d="M20.5195 2H3.47656C2.66016 2 2 2.64453 2 3.44141V20.5547C2 21.3516 2.66016 22 3.47656 22H20.5195C21.3359 22 22 21.3516 22 20.5586V3.44141C22 2.64453 21.3359 2 20.5195 2ZM7.93359 19.043H4.96484V9.49609H7.93359V19.043ZM6.44922 8.19531C5.49609 8.19531 4.72656 7.42578 4.72656 6.47656C4.72656 5.52734 5.49609 4.75781 6.44922 4.75781C7.39844 4.75781 8.16797 5.52734 8.16797 6.47656C8.16797 7.42188 7.39844 8.19531 6.44922 8.19531ZM19.043 19.043H16.0781V14.4023C16.0781 13.2969 16.0586 11.8711 14.5352 11.8711C12.9922 11.8711 12.7578 13.0781 12.7578 14.3242V19.043H9.79688V9.49609H12.6406V10.8008H12.6797C13.0742 10.0508 14.043 9.25781 15.4844 9.25781C18.4883 9.25781 19.043 11.2344 19.043 13.8047V19.043Z"
    fill="currentColor"
  />
</svg>

<svg xmlns="http://www.w3.org/2000/svg" width="24" height="24" fill="none" data-fui-icon="true" viewBox="0 0 24 24"><path fill="currentColor" d="M20.52 2H3.477C2.66 2 2 2.645 2 3.441v17.114C2 21.352 2.66 22 3.477 22H20.52c.816 0 1.48-.648 1.48-1.441V3.44C22 2.645 21.336 2 20.52 2M7.934 19.043h-2.97V9.496h2.97zM6.449 8.195a1.72 1.72 0 1 1-.006-3.439 1.72 1.72 0 0 1 .006 3.44m12.594 10.848h-2.965v-4.64c0-1.106-.02-2.532-1.543-2.532-1.543 0-1.777 1.207-1.777 2.453v4.719H9.797V9.496h2.844v1.305h.039c.394-.75 1.363-1.543 2.804-1.543 3.004 0 3.559 1.976 3.559 4.547z"/></svg>
